Numix-GalliumOS/32/devices/gnome-dev-pcmcia.svg

<?xml version="1.0" encoding="UTF-8" standalone="no"?>
<svg
   xmlns:dc="http://purl.org/dc/elements/1.1/"
   xmlns:cc="http://creativecommons.org/ns#"
   xmlns:rdf="http://www.w3.org/1999/02/22-rdf-syntax-ns#"
   xmlns:svg="http://www.w3.org/2000/svg"
   xmlns="http://www.w3.org/2000/svg"
   xmlns:xlink="http://www.w3.org/1999/xlink"
   xmlns:sodipodi="http://sodipodi.sourceforge.net/DTD/sodipodi-0.dtd"
   xmlns:inkscape="http://www.inkscape.org/namespaces/inkscape"
   width="32"
   height="32"
   viewBox="0 0 32 32"
   id="svg1798"
   version="1.1"
   inkscape:version="0.91 r"
   sodipodi:docname="gnome-dev-pcmcia.svg">
  <metadata
     id="metadata1898">
    <rdf:RDF>
      <cc:Work
         rdf:about="">
        <dc:format>image/svg+xml</dc:format>
        <dc:type
           rdf:resource="http://purl.org/dc/dcmitype/StillImage" />
      </cc:Work>
    </rdf:RDF>
  </metadata>
  <sodipodi:namedview
     pagecolor="#ffffff"
     bordercolor="#666666"
     borderopacity="1"
     objecttolerance="10"
     gridtolerance="10"
     guidetolerance="10"
     inkscape:pageopacity="0"
     inkscape:pageshadow="2"
     inkscape:window-width="640"
     inkscape:window-height="480"
     id="namedview1896" />
  <defs
     id="defs1800">
    <clipPath
       id="clip1">
      <rect
         width="32"
         height="32"
         id="rect1803" />
    </clipPath>
    <filter
       width="100%"
       x="0"
       y="0"
       height="100%"
       filterUnits="objectBoundingBox"
       id="alpha">
      <feColorMatrix
         values="0 0 0 0 1 0 0 0 0 1 0 0 0 0 1 0 0 0 1 0"
         in="SourceGraphic"
         type="matrix"
         id="feColorMatrix1806" />
    </filter>
    <g
       style="clip-path:url(#clip1)"
       id="surface6"
       clip-path="url(#clip1)">
      <path
         style="fill:url(#radial0)"
         d="M 6.097656 27.332031 L 0 27.332031 L 0 23.332031 L 6.097656 23.332031 Z "
         id="path1809" />
      <path
         style="fill:url(#radial1)"
         d="M 22.566406 23.332031 L 28.667969 23.332031 L 28.667969 27.332031 L 22.566406 27.332031 Z "
         id="path1811" />
      <path
         style="fill:url(#linear0)"
         d="M 6.097656 23.332031 L 22.566406 23.332031 L 22.566406 27.332031 L 6.097656 27.332031 Z "
         id="path1813" />
    </g>
    <linearGradient
       id="linear1"
       y1="13"
       y2="38"
       gradientUnits="userSpaceOnUse"
       x2="0">
      <stop
         offset="0"
         style="stop-color:#fff;stop-opacity:.6"
         id="stop1816" />
      <stop
         offset="1"
         style="stop-color:#fff;stop-opacity:0"
         id="stop1818" />
    </linearGradient>
    <linearGradient
       gradientTransform="scale(.66667)"
       id="linear3"
       y1="24"
       y2="28"
       gradientUnits="userSpaceOnUse"
       x2="0">
      <stop
         offset="0"
         style="stop-color:#ecd562"
         id="stop1821" />
      <stop
         offset="1"
         style="stop-color:#df8122"
         id="stop1823" />
    </linearGradient>
    <linearGradient
       gradientTransform="matrix(.60993 0 0 .5 -.60993 3.33333)"
       id="linear0"
       y1="48.001"
       y2="40"
       gradientUnits="userSpaceOnUse"
       x2="0">
      <stop
         offset="0"
         style="stop-color:#000;stop-opacity:0"
         id="stop1826" />
      <stop
         offset=".5"
         style="stop-color:#000"
         id="stop1828" />
      <stop
         offset="1"
         style="stop-color:#000;stop-opacity:0"
         id="stop1830" />
    </linearGradient>
    <linearGradient
       id="linear2"
       y1="17"
       y2="18"
       gradientUnits="userSpaceOnUse"
       x2="0">
      <stop
         offset="0"
         style="stop-color:#fdfdfd"
         id="stop1833" />
      <stop
         offset="1"
         style="stop-color:#9f9f9f"
         id="stop1835" />
    </linearGradient>
    <mask
       id="mask0">
      <g
         style="filter:url(#alpha)"
         id="g1838">
        <rect
           width="32"
           x="0"
           y="0"
           height="32"
           style="fill:#000;fill-opacity:.302"
           id="rect1840" />
      </g>
    </mask>
    <radialGradient
       cx="9.286"
       cy="18.037"
       gradientTransform="matrix(2.65854 -.03734 .0168 1.19584 -15.70336 .10714)"
       id="radial3"
       r="17"
       gradientUnits="userSpaceOnUse">
      <stop
         offset="0"
         style="stop-color:#efefef"
         id="stop1843" />
      <stop
         offset="1"
         style="stop-color:#c8c8c8"
         id="stop1845" />
    </radialGradient>
    <radialGradient
       cx="12.156"
       cy="40.48"
       gradientTransform="matrix(1.81157 -.03214 .02008 1.13174 -10.67818 -10.72976)"
       id="radial2"
       r="22"
       gradientUnits="userSpaceOnUse">
      <stop
         offset="0"
         style="stop-color:#efefef"
         id="stop1848" />
      <stop
         offset="1"
         style="stop-color:#c8c8c8"
         id="stop1850" />
    </radialGradient>
    <radialGradient
       cx="1"
       cy="44"
       gradientTransform="matrix(1.21985 0 0 .4 21.34743 7.73333)"
       id="radial1"
       r="5"
       gradientUnits="userSpaceOnUse">
      <stop
         offset="0"
         style="stop-color:#000"
         id="stop1853" />
      <stop
         offset="1"
         style="stop-color:#000;stop-opacity:0"
         id="stop1855" />
    </radialGradient>
    <radialGradient
       cx="1"
       cy="44"
       gradientTransform="matrix(-1.21985 0 0 -.4 7.31912 42.93333)"
       id="radial0"
       r="5"
       gradientUnits="userSpaceOnUse">
      <stop
         offset="0"
         style="stop-color:#000"
         id="stop1858" />
      <stop
         offset="1"
         style="stop-color:#000;stop-opacity:0"
         id="stop1860" />
    </radialGradient>
  </defs>
  <use
     style="mask:url(#mask0)"
     xlink:href="#surface6"
     id="use1862"
     mask="url(#mask0)" />
  <g
     style="stroke-linecap:round"
     id="g1864">
    <path
       style="fill:url(#radial2);stroke:#8c8c8c"
       d="M 3.498047 12.498047 C 2.947266 12.498047 2.501953 12.943359 2.501953 13.5 L 2.501953 37.5 C 2.501953 38.056641 2.947266 38.501953 3.498047 38.501953 L 38.501953 38.501953 C 39.052734 38.501953 39.498047 38.056641 39.498047 37.5 C 39.486328 37.001953 40.001953 36.515625 40.5 36.498047 L 44.501953 36.498047 C 45.052734 36.498047 45.498047 36.052734 45.498047 35.501953 L 45.498047 15.498047 C 45.498047 14.947266 45.052734 14.501953 44.501953 14.501953 L 40.5 14.501953 C 40.001953 14.501953 39.527344 13.998047 39.498047 13.5 C 39.498047 12.943359 39.052734 12.498047 38.501953 12.498047 Z "
       transform="scale(.66667)"
       id="path1866" />
    <path
       style="fill:none;stroke:url(#linear1)"
       d="M 3.498047 13.470703 C 3.46875 13.470703 3.46875 13.470703 3.46875 13.5 L 3.46875 37.5 C 3.46875 37.529297 3.46875 37.529297 3.498047 37.529297 L 38.501953 37.529297 C 38.513672 37.529297 38.53125 37.535156 38.53125 37.529297 C 38.53125 37.529297 38.53125 37.517578 38.53125 37.5 C 38.525391 36.919922 38.789062 36.457031 39.123047 36.123047 C 39.46875 35.789062 39.914062 35.548828 40.470703 35.53125 C 40.476562 35.53125 40.488281 35.53125 40.5 35.53125 L 44.501953 35.53125 C 44.53125 35.53125 44.53125 35.53125 44.53125 35.501953 L 44.53125 15.498047 C 44.53125 15.46875 44.53125 15.46875 44.501953 15.46875 L 40.5 15.46875 C 39.925781 15.46875 39.457031 15.216797 39.123047 14.876953 C 38.794922 14.537109 38.560547 14.097656 38.53125 13.564453 C 38.53125 13.541016 38.53125 13.523438 38.53125 13.5 C 38.53125 13.470703 38.53125 13.470703 38.501953 13.470703 Z "
       transform="scale(.66667)"
       id="path1868" />
    <path
       style="fill:url(#radial3);stroke:url(#linear2)"
       d="M 3.498047 16.5 L 35.501953 16.5 C 36.052734 16.5 36.498047 16.945312 36.498047 17.501953 L 36.498047 33.498047 C 36.498047 34.054688 36.052734 34.5 35.501953 34.5 L 3.498047 34.5 "
       transform="scale(.66667)"
       id="path1870" />
  </g>
  <g
     style="fill:#d6b943"
     id="g1872">
    <path
       d="M 5.332031 8.6875 L 12 8.6875 L 12 9.332031 L 5.332031 9.332031 Z "
       id="path1874" />
    <path
       d="M 5.332031 24.6875 L 12 24.6875 L 12 25.332031 L 5.332031 25.332031 Z "
       id="path1876" />
  </g>
  <path
     style="fill:#606060"
     d="M 7.332031 12.667969 L 22 12.667969 C 22.367188 12.667969 22.667969 12.964844 22.667969 13.332031 L 22.667969 20.667969 C 22.667969 21.035156 22.367188 21.332031 22 21.332031 L 7.332031 21.332031 C 6.964844 21.332031 6.667969 21.035156 6.667969 20.667969 L 6.667969 13.332031 C 6.667969 12.964844 6.964844 12.667969 7.332031 12.667969 Z "
     id="path1878" />
  <path
     style="fill:url(#linear3)"
     d="M 10.667969 16.667969 L 22 16.667969 L 22 18 L 10.667969 18 Z "
     id="path1880" />
  <g
     style="fill:#fff"
     id="g1882">
    <path
       d="M 10.667969 18.6875 L 11.632812 18.6875 C 11.84375 18.6875 12 18.738281 12.105469 18.84375 C 12.207031 18.945312 12.261719 19.09375 12.261719 19.285156 C 12.261719 19.480469 12.203125 19.632812 12.089844 19.746094 C 11.976562 19.855469 11.800781 19.910156 11.566406 19.910156 L 11.25 19.910156 L 11.25 20.632812 L 10.667969 20.632812 L 10.667969 18.6875 M 11.25 19.515625 L 11.390625 19.515625 C 11.503906 19.515625 11.582031 19.496094 11.628906 19.457031 C 11.671875 19.414062 11.695312 19.363281 11.695312 19.300781 C 11.695312 19.242188 11.675781 19.1875 11.636719 19.144531 C 11.597656 19.105469 11.523438 19.082031 11.414062 19.082031 L 11.25 19.082031 L 11.25 19.515625 "
       id="path1884" />
    <path
       d="M 13.816406 19.835938 L 14.324219 19.996094 C 14.292969 20.144531 14.238281 20.269531 14.164062 20.367188 C 14.089844 20.464844 14 20.539062 13.890625 20.589844 C 13.78125 20.640625 13.644531 20.667969 13.476562 20.667969 C 13.269531 20.667969 13.105469 20.636719 12.972656 20.574219 C 12.84375 20.511719 12.734375 20.40625 12.640625 20.25 C 12.546875 20.09375 12.5 19.898438 12.5 19.65625 C 12.5 19.332031 12.582031 19.085938 12.746094 18.914062 C 12.910156 18.742188 13.144531 18.652344 13.449219 18.652344 C 13.683594 18.652344 13.871094 18.703125 14.003906 18.800781 C 14.140625 18.902344 14.242188 19.054688 14.308594 19.257812 L 13.796875 19.378906 C 13.777344 19.316406 13.757812 19.273438 13.738281 19.246094 C 13.707031 19.199219 13.667969 19.164062 13.621094 19.140625 C 13.574219 19.117188 13.519531 19.105469 13.460938 19.105469 C 13.332031 19.105469 13.230469 19.160156 13.160156 19.269531 C 13.105469 19.351562 13.082031 19.476562 13.082031 19.652344 C 13.082031 19.867188 13.113281 20.015625 13.175781 20.097656 C 13.238281 20.175781 13.328125 20.214844 13.441406 20.214844 C 13.554688 20.214844 13.636719 20.183594 13.691406 20.117188 C 13.75 20.054688 13.792969 19.960938 13.816406 19.835938 "
       id="path1886" />
    <path
       d="M 14.601562 18.6875 L 15.363281 18.6875 L 15.660156 19.871094 L 15.953125 18.6875 L 16.714844 18.6875 L 16.714844 20.632812 L 16.238281 20.632812 L 16.238281 19.148438 L 15.871094 20.632812 L 15.441406 20.632812 L 15.074219 19.148438 L 15.074219 20.632812 L 14.601562 20.632812 L 14.601562 18.6875 "
       id="path1888" />
    <path
       d="M 18.335938 19.835938 L 18.84375 19.996094 C 18.808594 20.144531 18.753906 20.269531 18.679688 20.367188 C 18.609375 20.464844 18.515625 20.539062 18.40625 20.589844 C 18.296875 20.640625 18.160156 20.667969 17.992188 20.667969 C 17.789062 20.667969 17.621094 20.636719 17.492188 20.574219 C 17.363281 20.511719 17.25 20.40625 17.15625 20.25 C 17.0625 20.09375 17.015625 19.898438 17.015625 19.65625 C 17.015625 19.332031 17.097656 19.085938 17.261719 18.914062 C 17.429688 18.742188 17.664062 18.652344 17.964844 18.652344 C 18.203125 18.652344 18.386719 18.703125 18.523438 18.800781 C 18.660156 18.902344 18.757812 19.054688 18.824219 19.257812 L 18.3125 19.378906 C 18.292969 19.316406 18.277344 19.273438 18.257812 19.246094 C 18.222656 19.199219 18.183594 19.164062 18.136719 19.140625 C 18.089844 19.117188 18.039062 19.105469 17.980469 19.105469 C 17.847656 19.105469 17.746094 19.160156 17.675781 19.269531 C 17.625 19.351562 17.597656 19.476562 17.597656 19.652344 C 17.597656 19.867188 17.628906 20.015625 17.691406 20.097656 C 17.753906 20.175781 17.84375 20.214844 17.957031 20.214844 C 18.070312 20.214844 18.152344 20.183594 18.210938 20.117188 C 18.265625 20.054688 18.308594 19.960938 18.335938 19.835938 "
       id="path1890" />
    <path
       d="M 19.148438 18.6875 L 19.730469 18.6875 L 19.730469 20.632812 L 19.148438 20.632812 L 19.148438 18.6875 "
       id="path1892" />
    <path
       d="M 21.300781 20.3125 L 20.640625 20.3125 L 20.546875 20.632812 L 19.953125 20.632812 L 20.660156 18.6875 L 21.292969 18.6875 L 22 20.632812 L 21.390625 20.632812 L 21.300781 20.3125 M 21.179688 19.890625 L 20.972656 19.191406 L 20.765625 19.890625 L 21.179688 19.890625 "
       id="path1894" />
  </g>
</svg>

<svg xmlns="http://www.w3.org/2000/svg" xmlns:xlink="http://www.w3.org/1999/xlink" viewBox="0 0 32 32">
 <defs>
  <filter width="32" x="0" y="0" height="32" filterUnits="objectBoundingBox" id="alpha">
   <feColorMatrix values="0 0 0 0 1 0 0 0 0 1 0 0 0 0 1 0 0 0 1 0" in="SourceGraphic" type="matrix"/>
  </filter>
  <g id="surface6">
   <path d="m 6.098 27.332 l -6.098 0 l 0 -4 l 6.098 0 Z" style="fill:url(#radial0)"/>
   <path d="m 22.566 23.332 l 6.102 0 l 0 4 l -6.102 0 Z" style="fill:url(#radial1)"/>
   <path d="m 6.098 23.332 l 16.469 0 l 0 4 l -16.469 0 Z" style="fill:url(#linear0)"/>
  </g>
  <linearGradient id="linear1" y1="13" y2="38" gradientUnits="userSpaceOnUse" x2="0">
   <stop style="stop-color:#fff;stop-opacity:0.6"/>
   <stop offset="1" style="stop-color:#fff;stop-opacity:0"/>
  </linearGradient>
  <linearGradient gradientTransform="scale(.66667)" id="linear3" y1="24" y2="28" gradientUnits="userSpaceOnUse" x2="0">
   <stop style="stop-color:#ecd562"/>
   <stop offset="1" style="stop-color:#df8122"/>
  </linearGradient>
  <linearGradient gradientTransform="matrix(.60993 0 0 .5 -.60993 3.33333)" id="linear0" y1="48" y2="40" gradientUnits="userSpaceOnUse" x2="0">
   <stop style="stop-color:#000;stop-opacity:0"/>
   <stop offset="0.5" style="stop-color:#000"/>
   <stop offset="1" style="stop-color:#000;stop-opacity:0"/>
  </linearGradient>
  <linearGradient id="linear2" y1="17" y2="18" gradientUnits="userSpaceOnUse" x2="0">
   <stop style="stop-color:#fdfdfd"/>
   <stop offset="1" style="stop-color:#9f9f9f"/>
  </linearGradient>
  <mask id="mask0">
   <g style="filter:url(#alpha)">
    <rect width="32" height="32" style="fill:#000;fill-opacity:0.302"/>
   </g>
  </mask>
  <radialGradient cx="9.286" cy="18.04" gradientTransform="matrix(2.65854 -.03734 .0168 1.19584 -15.70336 .10714)" id="radial3" r="17" gradientUnits="userSpaceOnUse">
   <stop style="stop-color:#efefef"/>
   <stop offset="1" style="stop-color:#c8c8c8"/>
  </radialGradient>
  <radialGradient cx="12.156" cy="40.48" gradientTransform="matrix(1.81157 -.03214 .02008 1.13174 -10.67818 -10.72976)" id="radial2" r="22" gradientUnits="userSpaceOnUse" xlink:href="#radial3"/>
  <radialGradient cx="1" cy="44" gradientTransform="matrix(1.21985 0 0 .4 21.34743 7.73333)" id="radial1" r="5" gradientUnits="userSpaceOnUse">
   <stop style="stop-color:#000"/>
   <stop offset="1" style="stop-color:#000;stop-opacity:0"/>
  </radialGradient>
  <radialGradient cx="1" cy="44" gradientTransform="matrix(-1.21985 0 0 -.4 7.31912 42.93333)" id="radial0" r="5" gradientUnits="userSpaceOnUse" xlink:href="#radial1"/>
 </defs>
 <use xlink:href="#surface6" style="mask:url(#mask0)"/>
 <g style="stroke-linecap:round">
  <path d="m 3.498 12.498 c -0.551 0 -0.996 0.445 -0.996 1 l 0 24 c 0 0.557 0.445 1 0.996 1 l 35 0 c 0.551 0 0.996 -0.445 0.996 -1 c -0.012 -0.498 0.504 -0.984 1 -1 l 4 0 c 0.551 0 0.996 -0.445 0.996 -0.996 l 0 -20 c 0 -0.551 -0.445 -0.996 -0.996 -0.996 l -4 0 c -0.498 0 -0.973 -0.504 -1 -1 c 0 -0.557 -0.445 -1 -0.996 -1 Z" transform="scale(.66667)" style="fill:url(#radial2);stroke:#8c8c8c"/>
  <path d="m 3.498 13.471 c -0.029 0 -0.029 0 -0.029 0.029 l 0 24 c 0 0.029 0 0.029 0.029 0.029 l 35 0 c 0.012 0 0.029 0.006 0.029 0 c 0 0 0 -0.012 0 -0.029 c -0.006 -0.58 0.258 -1.043 0.592 -1.377 c 0.346 -0.334 0.791 -0.574 1.348 -0.592 c 0.006 0 0.018 0 0.029 0 l 4 0 c 0.029 0 0.029 0 0.029 -0.029 l 0 -20 c 0 -0.029 0 -0.029 -0.029 -0.029 l -4 0 c -0.574 0 -1.043 -0.252 -1.377 -0.592 c -0.328 -0.34 -0.563 -0.779 -0.592 -1.313 c 0 -0.023 0 -0.041 0 -0.064 c 0 -0.029 0 -0.029 -0.029 -0.029 Z" transform="scale(.66667)" style="fill:none;stroke:url(#linear1)"/>
  <path d="m 3.498 16.5 l 32 0 c 0.551 0 0.996 0.445 0.996 1 l 0 15.996 c 0 0.557 -0.445 1 -0.996 1 l -32 0" transform="scale(.66667)" style="fill:url(#radial3);stroke:url(#linear2)"/>
 </g>
 <g style="fill:#d6b943">
  <path d="m 5.332 8.688 l 6.668 0 l 0 0.645 l -6.668 0 Z"/>
  <path d="m 5.332 24.688 l 6.668 0 l 0 0.645 l -6.668 0 Z"/>
 </g>
 <path d="m 7.332 12.668 l 14.668 0 c 0.367 0 0.668 0.297 0.668 0.664 l 0 7.336 c 0 0.367 -0.301 0.664 -0.668 0.664 l -14.668 0 c -0.367 0 -0.664 -0.297 -0.664 -0.664 l 0 -7.336 c 0 -0.367 0.297 -0.664 0.664 -0.664 Z" style="fill:#606060"/>
 <path d="m 10.668 16.668 l 11.332 0 l 0 1.332 l -11.332 0 Z" style="fill:url(#linear3)"/>
 <g style="fill:#fff">
  <path d="m 10.668 18.688 l 0.965 0 c 0.211 0 0.367 0.051 0.473 0.156 c 0.102 0.102 0.156 0.25 0.156 0.441 c 0 0.195 -0.059 0.348 -0.172 0.461 c -0.113 0.109 -0.289 0.164 -0.523 0.164 l -0.316 0 l 0 0.723 l -0.582 0 l 0 -1.945 m 0.582 0.828 l 0.141 0 c 0.113 0 0.191 -0.02 0.238 -0.059 c 0.043 -0.043 0.066 -0.094 0.066 -0.156 c 0 -0.059 -0.02 -0.113 -0.059 -0.156 c -0.039 -0.039 -0.113 -0.063 -0.223 -0.063 l -0.164 0 l 0 0.434"/>
  <path d="m 13.816 19.836 l 0.508 0.16 c -0.031 0.148 -0.086 0.273 -0.16 0.371 c -0.074 0.098 -0.164 0.172 -0.273 0.223 c -0.109 0.051 -0.246 0.078 -0.414 0.078 c -0.207 0 -0.371 -0.031 -0.504 -0.094 c -0.129 -0.063 -0.238 -0.168 -0.332 -0.324 c -0.094 -0.156 -0.141 -0.352 -0.141 -0.594 c 0 -0.324 0.082 -0.57 0.246 -0.742 c 0.164 -0.172 0.398 -0.262 0.703 -0.262 c 0.234 0 0.422 0.051 0.555 0.148 c 0.137 0.102 0.238 0.254 0.305 0.457 l -0.512 0.121 c -0.02 -0.063 -0.039 -0.105 -0.059 -0.133 c -0.031 -0.047 -0.07 -0.082 -0.117 -0.105 c -0.047 -0.023 -0.102 -0.035 -0.16 -0.035 c -0.129 0 -0.23 0.055 -0.301 0.164 c -0.055 0.082 -0.078 0.207 -0.078 0.383 c 0 0.215 0.031 0.363 0.094 0.445 c 0.063 0.078 0.152 0.117 0.266 0.117 c 0.113 0 0.195 -0.031 0.25 -0.098 c 0.059 -0.063 0.102 -0.156 0.125 -0.281"/>
  <path d="m 14.602 18.688 l 0.762 0 l 0.297 1.184 l 0.293 -1.184 l 0.762 0 l 0 1.945 l -0.477 0 l 0 -1.484 l -0.367 1.484 l -0.43 0 l -0.367 -1.484 l 0 1.484 l -0.473 0 l 0 -1.945"/>
  <path d="m 18.336 19.836 l 0.508 0.16 c -0.035 0.148 -0.09 0.273 -0.164 0.371 c -0.07 0.098 -0.164 0.172 -0.273 0.223 c -0.109 0.051 -0.246 0.078 -0.414 0.078 c -0.203 0 -0.371 -0.031 -0.5 -0.094 c -0.129 -0.063 -0.242 -0.168 -0.336 -0.324 c -0.094 -0.156 -0.141 -0.352 -0.141 -0.594 c 0 -0.324 0.082 -0.57 0.246 -0.742 c 0.168 -0.172 0.402 -0.262 0.703 -0.262 c 0.238 0 0.422 0.051 0.559 0.148 c 0.137 0.102 0.234 0.254 0.301 0.457 l -0.512 0.121 c -0.02 -0.063 -0.035 -0.105 -0.055 -0.133 c -0.035 -0.047 -0.074 -0.082 -0.121 -0.105 c -0.047 -0.023 -0.098 -0.035 -0.156 -0.035 c -0.133 0 -0.234 0.055 -0.305 0.164 c -0.051 0.082 -0.078 0.207 -0.078 0.383 c 0 0.215 0.031 0.363 0.094 0.445 c 0.063 0.078 0.152 0.117 0.266 0.117 c 0.113 0 0.195 -0.031 0.254 -0.098 c 0.055 -0.063 0.098 -0.156 0.125 -0.281"/>
  <path d="m 19.15 18.688 l 0.582 0 l 0 1.945 l -0.582 0 l 0 -1.945"/>
  <path d="m 21.301 20.313 l -0.66 0 l -0.094 0.32 l -0.594 0 l 0.707 -1.945 l 0.633 0 l 0.707 1.945 l -0.609 0 l -0.09 -0.32 m -0.121 -0.422 l -0.207 -0.699 l -0.207 0.699 l 0.414 0"/>
 </g>
</svg>
